public/assets/images/icons/red/visibility-invisible/edit-small.svg

<svg width="16" height="16" xmlns="http://www.w3.org/2000/svg" viewBox="0 0 16 16" shape-rendering="geometricPrecision" fill="#cb1800"><defs><mask id="a"><rect fill="#fff" width="100%" height="100%"/><path d="M12.997.858a4.809 4.809 0 0 0-4.253 2.563 4.81 4.81 0 0 0 8.506 0A4.812 4.812 0 0 0 12.997.858z" fill="#000"/></mask></defs><path d="M12.997 1.611a3.394 3.394 0 0 0-3.003 1.81 3.397 3.397 0 0 0 6.006 0 3.398 3.398 0 0 0-3.003-1.81zm-.001 3.396a1.587 1.587 0 1 1 0-3.174 1.587 1.587 0 0 1 0 3.174z"/><path d="M6.231 12.232l1.343-.505-.988-.877-.355 1.382zm4.143-6.606V3.124h-9.35v11.805h9.35V9.53l3.113-3.497-1.938-1.728-1.175 1.321zm-.962 1.083l-2.51 2.819 1.937 1.73.573-.645v3.351H1.983V4.086h7.428v2.623zm5.13-3.814a1.297 1.297 0 0 0-1.828.1l-.69.774L13.961 5.5l.694-.778-.002-.001a1.3 1.3 0 0 0-.111-1.826zm-7.888 4.79H3.233v.961h3.421v-.961zM5.265 5.642H3.233v.962h2.032v-.962z" mask="url(#a)"/></svg>

<?xml version="1.0"?><!DOCTYPE svg PUBLIC "-//W3C//DTD SVG 1.1//EN" "http://www.w3.org/Graphics/SVG/1.1/DTD/svg11.dtd"><svg width="16px" height="16px" xmlns="http://www.w3.org/2000/svg" viewBox="0 0 16 16" shape-rendering="geometricPrecision" fill="#cb1800"><defs><mask id="visibility-invisible-path"><rect fill="#fff" width="100%" height="100%"/><path d="M12.997,0.858c-1.845,0-3.446,1.039-4.253,2.563c0.808,1.523,2.408,2.562,4.253,2.562 c1.844,0,3.444-1.039,4.253-2.562C16.441,1.897,14.841,0.858,12.997,0.858z" fill="#000"/></mask></defs><g id="visibility-invisible" display="inline" fill="#cb1800"><g><g><path d="M12.997,1.611c-1.303,0-2.433,0.733-3.003,1.81c0.57,1.075,1.7,1.809,3.003,1.809c1.302,0,2.432-0.733,3.003-1.809 C15.429,2.345,14.299,1.611,12.997,1.611z M12.996,5.007c-0.876,0-1.587-0.71-1.587-1.586c0-0.877,0.711-1.588,1.587-1.588 c0.877,0,1.588,0.711,1.588,1.588C14.584,4.297,13.873,5.007,12.996,5.007z"/></g></g></g><g mask="url(#visibility-invisible-path)"><path d="M6.231,12.232l1.343-0.505L6.586,10.85L6.231,12.232z M10.374,5.626V3.124h-9.35v11.805h9.35V9.53 l3.113-3.497l-1.938-1.728L10.374,5.626z M9.412,6.709l-2.51,2.819l1.937,1.73l0.573-0.645v3.351H1.983V4.086h7.428V6.709z M14.542,2.895c-0.533-0.477-1.348-0.43-1.828,0.1l-0.69,0.774L13.961,5.5l0.694-0.778l-0.002-0.001 C15.123,4.186,15.074,3.369,14.542,2.895z M6.654,7.685H3.233v0.961h3.421V7.685z M5.265,5.642H3.233v0.962h2.032V5.642z"/></g></svg>
